X: 1
T:Mrs John MacColl  "CYMRU"
M:C|
L:1/8
Q:80
C:John MacColl
S:March
K:HP
|: a3/4f/4|
{gef}e{g}A/2d/2{gcd}c{e}A/2{d}c/2|
{gef}ea3/4f/4{gef}e3/4d/4{g}c/4{d}A3/4|  !
{Gdc}d{e}G/2d/2{gBd}B{e}G/2{d}B/2|
{Gdc}d{g}c3/4d/4{gef}e3/4d/4{g}B/4{d}G3/4| |
{gcd}c{e}A/2{d}c/2{Gdc}d{g}c3/4d/4|  !
{gef}ea3/4g/4{fg}f{GdG}e/2d/2|
{gBd}B{e}G/2{d}B/2{gef}e3/4c/4{gde}d3/4B/4|
{gcd}c{e}A{GAG}A:| |:  !
{g}c3/4e/4|
{g}c/4e3/4{A}e3/4A/4{gcd}c{e}A/2{d}c/2|
{g}d/4f3/4{g}c/4e3/4{gef}e3/4d/4{g}c/4{d}A3/4|  !
{g}B3/4c/4{g}d3/4c/4{gBd}B{e}G/2{d}B/2|
{Gdc}d{g}c3/4d/4{gef}e3/4d/4{g}B/4{d}G3/4| |
{g}c/4e3/4{gde}d3/4B/4{gcd}c{e}A/2{d}c/2|  !
{gef}ea3/4g/4{fg}f{GdG}e/2d/2|
{gBd}B{e}G/2{d}B/2{gef}e3/4c/4{gde}d3/4B/4|
{gcd}c{e}A{GAG}A:| |:  !
e/4a3/4|
A{GdGe}A/2{d}c/2{g}c/4e3/4{g}A3/4{d}c/4|
{g}d/4f3/4{g}e/4a3/4{cd}c{e}A/2{d}c/2|  !
{gde}d3/4B/4{g}f3/4d/4{g}c/4{d}A3/4{gef}e3/4c/4|
{g}B3/4c/4{gde}d3/4c/4{gBd}B{e}G/2{d}B/2| |
|1 A{GdGe}A/2{d}c/2|2 c{GdGe}A/2{d}c/2{g}c/4e3/4{g}A3/4{d}c/4|  !
{g}d/4f3/4{g}e/4a3/4{cd}c{gef}e3/4d/4|
{gBd}B{e}G/2{d}B/2{gef}e3/4c/4{gde}d3/4B/4|
{gcd}c{e}A{GAG}A:| |:  !
{g}c3/4d/4|
{g}e/4a3/4g/4a3/4f/4a3/4e3/4c/4|
{g}d/4f3/4{g}e/4a3/4{cd}c{e}A/2{d}c/2|  !
{gde}d3/4B/4{g}f3/4d/4{g}c/4{d}A3/4{gef}e3/4c/4|
{g}B3/4c/4{gde}d3/4c/4{gBd}B{e}G/2{d}B/2|1 |
{g}A/4a3/4g/4a3/4f/4a3/4e3/4c/4|  !
{g}d/4f3/4{g}e/4a3/4{cd}c{gef}e3/4d/4|
{gBd}B{e}G/2{d}B/2{gef}e3/4c/4{gde}d3/4B/4|
{gcd}c{e}A{GAG}A:|2 |  !
{g}c/4{d}A3/4{gde}d3/4B/4{g}c/4e3/4{g}f3/4d/4|
{gef}e3/4A/4a3/4e/4{gcd}c{gef}e3/4d/4|
{gBd}B{e}G/2{d}B/2{gef}e3/4c/4{gde}d3/4B/4|  !
{gcd}c{e}A{GAG}A|]
